!!!OTL/incipit: Gestern Abend in der stillen Ruh hoert' ich einer jungen Amsel zu
!!!ARE: Europa, Mitteleuropa, Deutschland, Baden, Freiburg i. Brsg.
!!!SCT: D0098
!!!TXL: DE
!!!YEM: Copyright 1995, estate of Helmut Schaffrath.
**kern	**text
*ICvox	*
!! Mixed meters:  3/4; 4/4
*M3/4	*
*k[]	*
*C:	*
{8c	Gestern
8g	.
=1	=1
8g	abend
8g	.
8g	in
8cc	der
8cc	stillen
8a	.
=2	=2
(4g	Ruh
4e)}	.
{8.a	hört'
16g	ichs
=3	=3
*M4/4	*
*met(c)	*
4.b/	einer
8a	.
8.g	jungen
16f	.
8f	Amsel
8e	.
=4	=4
*M3/4	*
(8fL	zu.
8gJ	.
4e)}	.
{8g	Und
8g	sie
=5	=5
8f	sang
8a	so
4d	schön,
8.b/	mein
16b/	Verstand
=6	=6
8.cc	.
16a	blieb
(8aL	stehn
8bJ)}	.
{8.b	u.sie
16a	.
=7	=7
8a	sang
8f	so
4d	schön,
8.b	mein
16b	Verstand
=8	=8
8b	.
8g	blieb
4g}	stehn.
{8c	Nur
8g	die
=9	=9
8g	Lie-
8g	-ja
8g	Lie-
8cc	-be
8cc	nur
8a	allein,
=10	=10
(4g	.
8e)	.
16r	.
16a	ja
8a	nur
8g	allein,
=11	=11
*M4/4	*
*met(c)	*
4b/	.
8r}	.
{8a	soll
8g	mein
8f	Vergnügen
8f	.
8e	.
=12	=12
(8fL	sein.
8gJ	.
4e)}	.
==	==
!!!AGN: Liebes - Lied
!! Inzipit = Variante zum Lied
!!!ONB: ESAC (Essen Associative Code) Database: DVA
!!!AMT: irregular
!!!AIN: vox
!!!EED: Helmut Schaffrath
!!!EEV: 1.0
!!!YOR: https://freidok.uni-freiburg.de/data/150373
!!!EFL: A90649
!!!ENC: Anna Maria Matuszewska
!!!EEV: 2025/06/04
*-	*-
